X: 1374
T: Daisy's Varsovienne
B: australian traditional tunes wiki
M:3/4
L:1/8
R: Varsovienne
Q: 1/4=100
K:G
V:1 
|:D2|"G"B.AG2E2|D2z2D2|B>AG2d2|d2z2d2|"D7"e>d c>B A.G|1
F2z2d>d|e2d2c2|"G"B2z2:|2"D7"F2z2F>F|e2d2F2|"G"G2z2D>G||
"G"B>^AB2D>G|B<^AB2D>G|B>^AB2c2|"D7"A2z2D>F|
A>^GA2D>F|A>^GA2D>F|A>^GA2B2|"G"G2z2D2|
B>^AB2B2|"Am"c>Bc2c2|"D7"d>^cd2d2|"G"d2z2d2|
"D7"e>d c>B A>G|F2z2d>d|e2d2F2|"G"G2z2||
% abcbook-tune_id 6342d53ad91c5d653dee541c


% abcbook-boost 0
% abcbook-tablature 
% abcbook-transpose 
% abcbook-lastupdated 1665324361804
% abcbook-soundfonts 
% abcbook-repeats 1
% NFF Book 2008

